X:1
T:Time
T:- Time -
T: "Inception"
T:Composer: Hans Zimmer Arranged by: Joey Wetzels
T:Joey Wetzels
T:Joey Wetzels
C:Hans Zimmer
Z:Joey Wetzels
Z:Joey Wetzels
%%score { ( 1 3 ) | ( 2 4 ) }
L:1/8
Q:1/4=64
M:4/4
K:G
V:1 treble nm="Piano" snm="Pno."
V:3 treble 
V:2 bass 
V:4 bass 
V:1
 z8 | z8 | z8 | z8 | z8 | z8 | z8 | z8 | z8 | z8 | z8 | z8 | z8 | z8 | z8 | z8 | [A,C]8 | [B,G]8 | %18
 [G,B,]8 | [DF]8 | [A,C]8 | [B,EB]8 | [G,B,]8 | [DF]8 | [A,C]8 | [B,G]8 | [G,B,]8 | [DF]8 | %28
 [A,C]8 | [EB]4 [FA]2 [DB]2 | z2 [DB]2 [CA]2 [B,G]2 | D8 | [A,C]8 | [B,G]8 | [G,B,]8 | [DF]8 | %36
 [A,C]8 | z8 | [G,B,]8 | [DF]8 | [A,C]8 | [B,G]8 | [G,B,]8 | [DF]8 | [A,C]8 | [B,EB]8 | [G,B,]8 | %47
 [DF]8 | [Ac]8 | [Eg]8 | [GB]8 | [Df]8 | [Ac]8 | [CEb]8 | [GB]8 | [Df]8 |] %56
V:2
 [A,,C,]8 | [E,,G,]8 | [G,,B,,]8 | [D,,F,]8 | [A,,C,]8 | [C,,E,B,]8 | [G,,B,,]8 | [D,,A,,F,]8 | %8
 [A,,,A,,C,]8 | [E,,,E,G,]8 | [G,,,G,,B,,]8 | [D,,,D,F,]8 | [A,,,A,,C,]8 | [C,,G,,E,B,]8 | %14
 [G,,,G,,B,,]8 | [D,,A,,D,F,]8 | [A,,E,]8 | E,,8 | [G,,D,]8 | [D,,A,,]8 | [A,,E,]8 | C,,8 | %22
 [G,,D,]8 | [D,A,]8 | [A,,E,]8 | [E,,E,]8 | [G,,D,]8 | [D,,A,,]8 | [A,,E,]8 | C,,8 | [G,,D,]8 | %31
 [D,,A,,]8 | E,8 | z6 E,,2 | D,8 | A,,8 | E,8 | [E,B,]8 | D,8 | A,,8 | [A,,E,]8 | [E,G,]8 | %42
 [G,,D,]8 | [D,A,]8 | [A,,E,]8 | C,,8 | [G,,D,]8 | [D,A,]8 | z8 | z8 | z8 | z8 | z8 | z8 | z8 | %55
 z8 |] %56
V:3
 x8 | x8 | x8 | x8 | x8 | x8 | x8 | x8 | x8 | x8 | x8 | x8 | x8 | x8 | x8 | x8 | x2 A,2 B,2 C2 | %17
 x8 | x2 G,2 A,2 B,2 | x8 | x2 A,2 B,2 C2 | x8 | x2 G,2 A,2 B,2 | x8 | x2 A,2 G,2 F,2 | x8 | x8 | %27
 x8 | x2 [A,c]2 [B,B]2 [CA]2 | B,8 | [G,B,]8 | F4 E2 F2 | x/ A/B/B/ E/A/B/B/ E/A/B/B/ E/A/B/B/ | %33
 x/ A/B/B/ E/G/B/B/ E/G/B/B/ E/G/B/B/ | x/ A/B/B/ D/A/B/B/ D/A/B/B/ D/A/B/B/ | %35
 x/ D/E/F/ A,/D/F/F/ A,/D/F/F/ A,/D/F/F/ | x/ A/B/B/ E/A/B/B/ E/A/B/B/ E/A/B/B/ | %37
 x/ G/B/B/ E/G/B/B/ E/G/B/B/ E/G/B/B/ | x/ A/B/B/ D/A/B/B/ D/A/B/B/ D/A/B/B/ | %39
 G,/D/F/F/ A,/D/F/F/ A,/D/F/F/ A,/D/F/F/ | x8 | x8 | x8 | x8 | x8 | x8 | x8 | x8 | x8 | x8 | x8 | %51
 x8 | x8 | x8 | x8 | x8 |] %56
V:4
 x8 | x8 | x8 | x8 | x8 | x8 | x8 | x8 | x8 | x8 | x8 | x8 | x8 | x8 | x8 | x8 | x8 | x8 | x8 | %19
 x8 | x8 | x8 | x8 | x8 | x8 | x2 G,2 F,2 G,2 | x2 G,2 F,2 E,2 | x2 A,2 G,2 F,2 | x8 | x8 | x8 | %31
 x8 | A,,2 A,,2 A,,2 A,,2 | E,,2 E,,2 E,,2 x2 | G,,2 G,,2 G,,2 G,,2 | D,,2 D,,2 D,,2 D,,2 | %36
 A,,2 A,,2 A,,2 A,,2 | C,,2 C,,2 C,,2 C,,2 | G,,2 G,,2 G,,2 G,,2 | D,,2 D,,2 D,,2 D,,2 | x8 | %41
 x4 E,2 E,2 | x8 | x4 D,2 D,2 | x8 | x8 | x8 | x8 | x8 | x8 | x8 | x8 | x8 | x8 | x8 | x8 |] %56

